X:3674
T:Lilly,The. HSJJ.150
O:england
M:4/4
L:1/8
Q:200
S:HSJ Jackson,Wyresdale,Lancs.1823
R:Reel
A:Lancashire
H:1823.
K:D
dcdA B2AG|F2EDEE/E/E2|dcdAB2AG||FDEF DD/D/D2:|
|:FDADF2FA|FDAF EE/E/E2|FDADF2AF|EDEF D/D/DD2:|
|:dcdA~B2de|{g}f2ed e/e/e eg|gfedB2AF|EDEF D/D/DD2:|]


